X: 11
T:Steamboat Hornpipe (Coleville)
M:4/4
L:1/8
K:G
(3(def)|g2bg d2gd|BcdB G2(AB)|c2ec A2cA|FGAB cdef|!
g2bg d2gd|BcdB G2(AB)|cedc BAGF|A2G2G2:|!
|:(Bc)|dBdB g2gd|ecec a2ae|fefd gfgb|agfe defd|!
g2bg d2gd|BcdB G2AB|cedc BAGF|A2G2G2:|
